mastersystem/_inc/art.svg

<svg xmlns="http://www.w3.org/2000/svg"><g fill="#1e1e1e"><path d="m243.337 164.281c-12.348 0-22.373 10.024-22.373 22.373v19.53c0 12.349 10.025 22.372 22.373 22.372h20.198c12.348 0 22.373-10.023 22.373-22.372v-19.529c0-12.349-10.025-22.374-22.373-22.374zm0 .995h20.198c11.811 0 21.379 9.567 21.379 21.379v19.529c0 11.812-9.568 21.378-21.379 21.378h-20.198c-11.812 0-21.378-9.566-21.378-21.378v-19.53c0-11.812 9.566-21.379 21.378-21.378z" transform="matrix(.965926 -.258819 .258819 .965926 -42.201177 72.286743)"/><path d="m247.968 169.554c-1.686 0-3.061 1.374-3.061 3.061v6.805c0 1.686 1.375 3.06 3.061 3.06s3.06-1.374 3.06-3.06v-6.805c0-1.686-1.374-3.061-3.06-3.061zm0 .995c1.149 0 2.066.917 2.066 2.066v6.805c0 1.148-.918 2.066-2.066 2.066-1.149 0-2.066-.918-2.066-2.066v-6.805c-.001-1.149.917-2.066 2.066-2.066z" transform="matrix(.965926 -.258819 .258819 .965926 -37.107258 70.176333)"/><path d="m229.637 198.815c-1.686 0-3.061 1.374-3.061 3.061s1.374 3.077 3.061 3.077h6.805c1.685 0 3.061-1.39 3.061-3.077 0-1.685-1.375-3.061-3.061-3.061zm0 .995h6.805c1.149 0 2.066.918 2.066 2.066 0 1.149-.918 2.081-2.066 2.081h-6.805c-1.148-.004-2.065-.934-2.065-2.082 0-1.149.918-2.067 2.066-2.067z" transform="matrix(.965926 -.258819 .258819 .965926 -44.310788 67.194083)"/><path d="m258.901 210.345c-1.686 0-3.061 1.39-3.061 3.077v6.805c0 1.686 1.374 3.061 3.061 3.061 1.686 0 3.06-1.375 3.06-3.061v-6.805c0-1.686-1.374-3.077-3.06-3.077zm0 .995c1.148 0 2.065.934 2.065 2.082v6.805c0 1.149-.917 2.066-2.065 2.066-1.15 0-2.067-.918-2.067-2.066v-6.805c0-1.149.918-2.082 2.067-2.082z" transform="matrix(.965926 -.258819 .258819 .965926 -47.294413 74.396212)"/><path d="m270.424 187.884c-1.685 0-3.06 1.374-3.06 3.061 0 1.686 1.374 3.077 3.06 3.077h6.821c1.685 0 3.061-1.39 3.061-3.077 0-1.686-1.375-3.061-3.061-3.061zm0 .994h6.821c1.148 0 2.066.919 2.066 2.067 0 1.149-.918 2.082-2.066 2.082h-6.821c-1.148 0-2.066-.934-2.066-2.082 0-1.149.918-2.067 2.066-2.067z" transform="matrix(.965926 -.258819 .258819 .965926 -40.09156 77.380259)"/><path d="m232.69 182.467-.684.684 4.257 6.276.342.497.42-.419 2.019-2.02.42-.42-.498-.341z" transform="matrix(.965926 -.258819 .258819 .965926 -40.15847 67.357184)"/><path d="m244.091 210.393-.341.497-4.258 6.277.684.684 6.277-4.257.498-.342-.42-.419-2.02-2.02z" transform="matrix(.965926 -.258819 .258819 .965926 -47.131268 70.246362)"/><path d="m270.277 202.913-.42.419-2.02 2.02-.434.42.497.342 6.277 4.256.699-.684-4.258-6.276z" transform="matrix(.965926 -.258819 .258819 .965926 -44.24389 77.217187)"/><path d="m266.696 174.986-6.276 4.256-.498.341.435.421 2.02 2.019.42.42.341-.498 4.257-6.276z" transform="matrix(.965926 -.258819 .258819 .965926 -37.270757 74.329352)"/><path d="m242.451 159.26c-14.443 0-26.163 11.722-26.163 26.166v21.983c0 14.444 11.72 26.165 26.163 26.165h21.985c14.444 0 26.164-11.721 26.164-26.165v-21.983c0-14.444-11.719-26.166-26.164-26.166zm0 .996h21.985c13.908 0 25.169 11.262 25.169 25.17v21.983c0 13.909-11.263 25.171-25.169 25.171h-21.985c-13.906-.001-25.169-11.262-25.169-25.171v-21.983c0-13.908 11.263-25.17 25.169-25.17z" transform="matrix(.965926 -.258819 .258819 .965926 -42.20055 72.288858)"/><path d="m200.017 124.243v.497 105.943.497h.497 102.374.497v-.497-13.781h151.126.497v-.497-59.224-.497h-.497-151.127v-31.944-.497h-.497-102.373zm.993.994h101.379v31.944.497h.498.373 150.754v58.229h-150.973-.155-.498v.498 13.78h-101.379v-104.949z" transform="matrix(.965926 -.258819 .258819 .965926 -34.835378 90.821763)"/><path d="m374.971 160.788c-10.316 0-18.676 8.376-18.676 18.691s8.362 18.691 18.676 18.691c10.313 0 18.691-8.376 18.691-18.691s-8.377-18.691-18.691-18.691zm0 .995c9.776 0 17.696 7.918 17.696 17.696s-7.92 17.697-17.696 17.697c-9.778 0-17.682-7.919-17.682-17.697 0-9.777 7.904-17.696 17.682-17.696z" transform="matrix(.965926 -.258819 .258819 .965926 -33.675494 103.167143)"/><path d="m374.969 165.248c-7.85 0-14.216 6.382-14.216 14.232s6.366 14.216 14.216 14.216c7.849 0 14.232-6.366 14.232-14.216s-6.383-14.232-14.232-14.232zm0 .994c7.312 0 13.237 5.925 13.237 13.237 0 7.313-5.925 13.222-13.237 13.222-7.313 0-13.222-5.909-13.222-13.222 0-7.312 5.909-13.237 13.222-13.237z" transform="matrix(.965926 -.258819 .258819 .965926 -33.673736 103.16651)"/><path d="m419.96 148.736c-10.316 0-18.692 8.376-18.692 18.691s8.376 18.69 18.692 18.69c10.314 0 18.69-8.375 18.69-18.69s-8.376-18.691-18.69-18.691zm0 .994c9.777 0 17.696 7.919 17.696 17.697s-7.919 17.696-17.696 17.696c-9.778 0-17.697-7.919-17.697-17.696 0-9.778 7.919-17.697 17.697-17.697z" transform="matrix(.965926 -.258819 .258819 .965926 -29.023406 114.398263)"/><path d="m419.958 153.195c-7.851 0-14.216 6.383-14.216 14.232 0 7.85 6.365 14.216 14.216 14.216 7.848 0 14.215-6.366 14.215-14.216 0-7.849-6.366-14.232-14.215-14.232zm0 .995c7.312 0 13.221 5.925 13.221 13.237s-5.909 13.222-13.221 13.222c-7.313 0-13.222-5.91-13.222-13.222 0-7.313 5.909-13.237 13.222-13.237z" transform="matrix(.965926 -.258819 .258819 .965926 -29.021518 114.397628)"/><path d="m184.644 122.475c-2.487 0-4.522 2.034-4.522 4.522v106.007c0 2.488 2.035 4.521 4.523 4.521h270.727c2.312 0 4.154-1.78 4.413-4.024h.093v-.497-106.009c0-2.486-2.019-4.519-4.51-4.519l-270.728.001zm0 .994 270.728-.001c1.951 0 3.512 1.577 3.512 3.527v105.51.499c0 1.949-1.561 3.526-3.512 3.526h-270.727c-1.949.006-3.525-1.575-3.525-3.525l-.001-106.007c0-1.95 1.577-3.526 3.526-3.526z" transform="matrix(.965926 -.258819 .258819 .965926 -35.683669 88.955367)"/><path d="m353.261 157.877v.497 42.525.496h.498 42.523.498v-.496-42.525-.497h-.498-42.523zm.995.994h41.53v41.53h-41.53z" transform="matrix(.965926 -.258819 .258819 .965926 -33.714686 103.183304)"/><path d="m398.25 145.825v.497 42.524.497h.497 42.509.497v-.497-42.524-.497h-.497-42.509zm.994.994h41.514v41.53h-41.514z" transform="matrix(.965926 -.258819 .258819 .965926 -29.062724 114.414632)"/><path d="m211.114 163.157v1.197 83.028 1.212l.839-.855 13.222-13.206-.715-.715-12.352 12.368v-80.622l12.352 12.349.714-.699-13.221-13.206-.839-.855z" transform="matrix(.965926 -.258819 .258819 .965926 -45.850869 63.474891)"/><path d="m291.555 224.687-.715.699 12.368 12.367h-80.623l12.306-12.305-.715-.699-13.144 13.145-.855.854h1.197 83.029 1.196l-.839-.854-13.206-13.207z" transform="matrix(.965926 -.258819 .258819 .965926 -51.015198 75.935977)"/><path d="m295.766 144.238-.854.854-13.16 13.145.715.714 12.305-12.32v80.652l-12.336-12.352-.699.7 13.175 13.19.854.855v-1.212-83.029-1.196z" transform="matrix(.965926 -.258819 .258819 .965926 -38.549055 81.10476)"/><path d="m201.263 154.092.855.839 13.16 13.176.699-.7-12.305-12.32h80.622l-12.354 12.351.696.699 13.209-13.206.839-.839h-1.196-83.029z" transform="matrix(.965926 -.258819 .258819 .965926 -33.386299 68.634804)"/><path d="m199.089 155.312v113.824h.994v-113.824z" transform="matrix(.965926 -.258819 .258819 .965926 -48.126865 58.887982)"/><path d="m346.256 149.539v.498 6.913.497h.497 42.524.498v-.497-6.913-.498h-.498-42.524zm.995.995h41.53v5.919l-41.53-.001z" transform="matrix(.965926 -.258819 .258819 .965926 -27.187087 100.479534)"/><path d="m391.245 137.487v.497 6.913.498h.497 42.509.497v-.498-6.913-.497h-.497-42.509zm.994.994h41.515v5.919h-41.515z" transform="matrix(.965926 -.258819 .258819 .965926 -22.53511 111.710802)"/><path d="m296.011 110.156c-.515 0-.947.433-.947.949v27.67c0 .516.432.948.947.948h147.647c.514 0 .932-.434.932-.948v-26.117c0-1.378-1.123-2.501-2.501-2.501h-146.075-.003zm.047.996h146.03c.842 0 1.507.665 1.507 1.506v26.071h-147.537z" transform="matrix(.965926 -.258819 .258819 .965926 -19.735166 99.975389)"/><path d="m319.088 204.876c-.515 0-.947.433-.947.947v10.488c0 .515.433.947.947.947h146.076c1.378 0 2.502-1.139 2.502-2.516v-8.919c0-.514-.418-.947-.932-.947h-147.648zm.047.994h147.538v8.872c0 .84-.666 1.522-1.507 1.522h-146.031z" transform="matrix(.965926 -.258819 .258819 .965926 -41.240291 108.882804)"/><path d="m301.661 158.652-3.278 3.278.715.699 3.263-3.262z" transform="matrix(.965926 -.258819 .258819 .965926 -31.341878 83.215612)"/><path d="m315.929 221.474-.715.699 3.279 3.278.699-.714z" transform="matrix(.965926 -.25882 .25882 .965926 -47.028024 89.712763)"/></g></svg>

<?xml version="1.0" encoding="utf-8"?>
<svg xmlns="http://www.w3.org/2000/svg">
  <path id="path3" d="M 243.337 164.281 C 230.989 164.281 220.964 174.305 220.964 186.654 L 220.964 206.184 C 220.964 218.533 230.989 228.556 243.337 228.556 L 263.535 228.556 C 275.883 228.556 285.908 218.533 285.908 206.184 L 285.908 186.655 C 285.908 174.306 275.883 164.281 263.535 164.281 L 243.337 164.281 Z M 243.337 165.276 L 263.535 165.276 C 275.346 165.276 284.914 174.843 284.914 186.655 L 284.914 206.184 C 284.914 217.996 275.346 227.562 263.535 227.562 L 243.337 227.562 C 231.525 227.562 221.959 217.996 221.959 206.184 L 221.959 186.654 C 221.959 174.842 231.525 165.275 243.337 165.276 Z" style="fill: rgb(30, 30, 30);" transform="matrix(0.965926, -0.258819, 0.258819, 0.965926, -42.201177, 72.286743)"/>
  <path id="path5" d="M 247.968 169.554 C 246.282 169.554 244.907 170.928 244.907 172.615 L 244.907 179.42 C 244.907 181.106 246.282 182.48 247.968 182.48 C 249.654 182.48 251.028 181.106 251.028 179.42 L 251.028 172.615 C 251.028 170.929 249.654 169.554 247.968 169.554 Z M 247.968 170.549 C 249.117 170.549 250.034 171.466 250.034 172.615 L 250.034 179.42 C 250.034 180.568 249.116 181.486 247.968 181.486 C 246.819 181.486 245.902 180.568 245.902 179.42 L 245.902 172.615 C 245.901 171.466 246.819 170.549 247.968 170.549 Z" style="fill: rgb(30, 30, 30);" transform="matrix(0.965926, -0.258819, 0.258819, 0.965926, -37.107258, 70.176333)"/>
  <path id="path7" d="M 229.637 198.815 C 227.951 198.815 226.576 200.189 226.576 201.876 C 226.576 203.563 227.95 204.953 229.637 204.953 L 236.442 204.953 C 238.127 204.953 239.503 203.563 239.503 201.876 C 239.503 200.191 238.128 198.815 236.442 198.815 L 229.637 198.815 Z M 229.637 199.81 L 236.442 199.81 C 237.591 199.81 238.508 200.728 238.508 201.876 C 238.508 203.025 237.59 203.957 236.442 203.957 L 229.637 203.957 C 228.489 203.953 227.572 203.023 227.572 201.875 C 227.572 200.726 228.49 199.808 229.638 199.808 L 229.637 199.81 Z" style="fill: rgb(30, 30, 30);" transform="matrix(0.965926, -0.258819, 0.258819, 0.965926, -44.310788, 67.194083)"/>
  <path id="path9" d="M 258.901 210.345 C 257.215 210.345 255.84 211.735 255.84 213.422 L 255.84 220.227 C 255.84 221.913 257.214 223.288 258.901 223.288 C 260.587 223.288 261.961 221.913 261.961 220.227 L 261.961 213.422 C 261.961 211.736 260.587 210.345 258.901 210.345 Z M 258.901 211.34 C 260.049 211.34 260.966 212.274 260.966 213.422 L 260.966 220.227 C 260.966 221.376 260.049 222.293 258.901 222.293 C 257.751 222.293 256.834 221.375 256.834 220.227 L 256.834 213.422 C 256.834 212.273 257.752 211.34 258.901 211.34 Z" style="fill: rgb(30, 30, 30);" transform="matrix(0.965926, -0.258819, 0.258819, 0.965926, -47.294413, 74.396212)"/>
  <path id="path11" d="M 270.424 187.884 C 268.739 187.884 267.364 189.258 267.364 190.945 C 267.364 192.631 268.738 194.022 270.424 194.022 L 277.245 194.022 C 278.93 194.022 280.306 192.632 280.306 190.945 C 280.306 189.259 278.931 187.884 277.245 187.884 L 270.424 187.884 Z M 270.424 188.878 L 277.245 188.878 C 278.393 188.878 279.311 189.797 279.311 190.945 C 279.311 192.094 278.393 193.027 277.245 193.027 L 270.424 193.027 C 269.276 193.027 268.358 192.093 268.358 190.945 C 268.358 189.796 269.276 188.878 270.424 188.878 Z" style="fill: rgb(30, 30, 30);" transform="matrix(0.965926, -0.258819, 0.258819, 0.965926, -40.09156, 77.380259)"/>
  <path id="polygon13" d="M 232.69 182.467 L 232.006 183.151 L 236.263 189.427 L 236.605 189.924 L 237.025 189.505 L 239.044 187.485 L 239.464 187.065 L 238.966 186.724 L 232.69 182.467 Z" style="fill: rgb(30, 30, 30);" transform="matrix(0.965926, -0.258819, 0.258819, 0.965926, -40.15847, 67.357184)"/>
  <path id="polygon15" d="M 244.091 210.393 L 243.75 210.89 L 239.492 217.167 L 240.176 217.851 L 246.453 213.594 L 246.951 213.252 L 246.531 212.833 L 244.511 210.813 L 244.091 210.393 Z" style="fill: rgb(30, 30, 30);" transform="matrix(0.965926, -0.258819, 0.258819, 0.965926, -47.131268, 70.246362)"/>
  <path id="polygon17" d="M 270.277 202.913 L 269.857 203.332 L 267.837 205.352 L 267.403 205.772 L 267.9 206.114 L 274.177 210.37 L 274.876 209.686 L 270.618 203.41 L 270.277 202.913 L 270.277 202.913 Z" style="fill: rgb(30, 30, 30);" transform="matrix(0.965926, -0.258819, 0.258819, 0.965926, -44.24389, 77.217187)"/>
  <path id="polygon19" d="M 266.696 174.986 L 260.42 179.242 L 259.922 179.583 L 260.357 180.004 L 262.377 182.023 L 262.797 182.443 L 263.138 181.945 L 267.395 175.669 L 266.696 174.986 Z" style="fill: rgb(30, 30, 30);" transform="matrix(0.965926, -0.258819, 0.258819, 0.965926, -37.270757, 74.329352)"/>
  <path id="path21" d="M 242.451 159.26 C 228.008 159.26 216.288 170.982 216.288 185.426 L 216.288 207.409 C 216.288 221.853 228.008 233.574 242.451 233.574 L 264.436 233.574 C 278.88 233.574 290.6 221.853 290.6 207.409 L 290.6 185.426 C 290.6 170.982 278.881 159.26 264.436 159.26 L 242.451 159.26 Z M 242.451 160.256 L 264.436 160.256 C 278.344 160.256 289.605 171.518 289.605 185.426 L 289.605 207.409 C 289.605 221.318 278.342 232.58 264.436 232.58 L 242.451 232.58 C 228.545 232.579 217.282 221.318 217.282 207.409 L 217.282 185.426 C 217.282 171.518 228.545 160.256 242.451 160.256 Z" style="fill: rgb(30, 30, 30);" transform="matrix(0.965926, -0.258819, 0.258819, 0.965926, -42.20055, 72.288858)"/>
  <path id="polygon23" d="M 200.017 124.243 L 200.017 124.74 L 200.017 230.683 L 200.017 231.18 L 200.514 231.18 L 302.888 231.18 L 303.385 231.18 L 303.385 230.683 L 303.385 216.902 L 454.511 216.902 L 455.008 216.902 L 455.008 216.405 L 455.008 157.181 L 455.008 156.684 L 454.511 156.684 L 303.384 156.684 L 303.384 124.74 L 303.384 124.243 L 302.887 124.243 L 200.514 124.243 L 200.017 124.243 L 200.017 124.243 Z M 201.01 125.237 L 302.389 125.237 L 302.389 157.181 L 302.389 157.678 L 302.887 157.678 L 303.26 157.678 L 454.014 157.678 L 454.014 215.907 L 303.041 215.907 L 302.886 215.907 L 302.388 215.907 L 302.388 216.405 L 302.388 230.185 L 201.009 230.185 L 201.009 125.236 L 201.01 125.237 Z" style="fill: rgb(30, 30, 30);" transform="matrix(0.965926, -0.258819, 0.258819, 0.965926, -34.835378, 90.821763)"/>
  <path id="circle25" d="M 374.971 160.788 C 364.655 160.788 356.295 169.164 356.295 179.479 C 356.295 189.794 364.657 198.17 374.971 198.17 C 385.284 198.17 393.662 189.794 393.662 179.479 C 393.662 169.164 385.285 160.788 374.971 160.788 L 374.971 160.788 Z M 374.971 161.783 C 384.747 161.783 392.667 169.701 392.667 179.479 C 392.667 189.257 384.747 197.176 374.971 197.176 C 365.193 197.176 357.289 189.257 357.289 179.479 C 357.289 169.702 365.193 161.783 374.971 161.783 L 374.971 161.783 Z" style="fill: rgb(30, 30, 30);" transform="matrix(0.965926, -0.258819, 0.258819, 0.965926, -33.675494, 103.167143)"/>
  <path id="circle27" d="M 374.969 165.248 C 367.119 165.248 360.753 171.63 360.753 179.48 C 360.753 187.33 367.119 193.696 374.969 193.696 C 382.818 193.696 389.201 187.33 389.201 179.48 C 389.201 171.63 382.818 165.248 374.969 165.248 Z M 374.969 166.242 C 382.281 166.242 388.206 172.167 388.206 179.479 C 388.206 186.792 382.281 192.701 374.969 192.701 C 367.656 192.701 361.747 186.792 361.747 179.479 C 361.747 172.167 367.656 166.242 374.969 166.242 Z" style="fill: rgb(30, 30, 30);" transform="matrix(0.965926, -0.258819, 0.258819, 0.965926, -33.673736, 103.16651)"/>
  <path id="circle29" d="M 419.96 148.736 C 409.644 148.736 401.268 157.112 401.268 167.427 C 401.268 177.742 409.644 186.117 419.96 186.117 C 430.274 186.117 438.65 177.742 438.65 167.427 C 438.65 157.112 430.274 148.736 419.96 148.736 L 419.96 148.736 Z M 419.96 149.73 C 429.737 149.73 437.656 157.649 437.656 167.427 C 437.656 177.205 429.737 185.123 419.96 185.123 C 410.182 185.123 402.263 177.204 402.263 167.427 C 402.263 157.649 410.182 149.73 419.96 149.73 L 419.96 149.73 Z" style="fill: rgb(30, 30, 30);" transform="matrix(0.965926, -0.258819, 0.258819, 0.965926, -29.023406, 114.398263)"/>
  <path id="circle31" d="M 419.958 153.195 C 412.107 153.195 405.742 159.578 405.742 167.427 C 405.742 175.277 412.107 181.643 419.958 181.643 C 427.806 181.643 434.173 175.277 434.173 167.427 C 434.173 159.578 427.807 153.195 419.958 153.195 Z M 419.958 154.19 C 427.27 154.19 433.179 160.115 433.179 167.427 C 433.179 174.739 427.27 180.649 419.958 180.649 C 412.645 180.649 406.736 174.739 406.736 167.427 C 406.736 160.114 412.645 154.19 419.958 154.19 Z" style="fill: rgb(30, 30, 30);" transform="matrix(0.965926, -0.258819, 0.258819, 0.965926, -29.021518, 114.397628)"/>
  <path id="path33" d="M 184.644 122.475 C 182.157 122.475 180.122 124.509 180.122 126.997 L 180.122 233.004 C 180.122 235.492 182.157 237.525 184.645 237.525 L 455.372 237.525 C 457.684 237.525 459.526 235.745 459.785 233.501 L 459.878 233.501 L 459.878 233.004 L 459.878 126.995 C 459.878 124.509 457.859 122.476 455.368 122.476 L 184.64 122.477 L 184.644 122.475 Z M 184.644 123.469 L 455.372 123.468 C 457.323 123.468 458.884 125.045 458.884 126.995 L 458.884 232.505 L 458.884 233.004 C 458.884 234.953 457.323 236.53 455.372 236.53 L 184.645 236.53 C 182.696 236.536 181.12 234.955 181.12 233.005 L 181.119 126.998 C 181.119 125.048 182.696 123.472 184.645 123.472 L 184.644 123.469 Z" style="fill: rgb(30, 30, 30);" transform="matrix(0.965926, -0.258819, 0.258819, 0.965926, -35.683669, 88.955367)"/>
  <path id="rect35" d="M 353.261 157.877 L 353.261 158.374 L 353.261 200.899 L 353.261 201.395 L 353.759 201.395 L 396.282 201.395 L 396.78 201.395 L 396.78 200.899 L 396.78 158.374 L 396.78 157.877 L 396.282 157.877 L 353.759 157.877 L 353.261 157.877 Z M 354.256 158.871 L 395.786 158.871 L 395.786 200.401 L 354.256 200.401 L 354.256 158.871 Z" style="fill: rgb(30, 30, 30);" transform="matrix(0.965926, -0.258819, 0.258819, 0.965926, -33.714686, 103.183304)"/>
  <path id="rect37" d="M 398.25 145.825 L 398.25 146.322 L 398.25 188.846 L 398.25 189.343 L 398.747 189.343 L 441.256 189.343 L 441.753 189.343 L 441.753 188.846 L 441.753 146.322 L 441.753 145.825 L 441.256 145.825 L 398.747 145.825 L 398.25 145.825 Z M 399.244 146.819 L 440.758 146.819 L 440.758 188.349 L 399.244 188.349 L 399.244 146.819 Z" style="fill: rgb(30, 30, 30);" transform="matrix(0.965926, -0.258819, 0.258819, 0.965926, -29.062724, 114.414632)"/>
  <path id="polyline39" d="M 211.114 163.157 L 211.114 164.354 L 211.114 247.382 L 211.114 248.594 L 211.953 247.739 L 225.175 234.533 L 224.46 233.818 L 212.108 246.186 L 212.108 165.564 L 224.46 177.913 L 225.174 177.214 L 211.953 164.008 L 211.114 163.153 L 211.114 163.157 Z" style="fill: rgb(30, 30, 30);" transform="matrix(0.965926, -0.258819, 0.258819, 0.965926, -45.850869, 63.474891)"/>
  <path id="polyline41" d="M 291.555 224.687 L 290.84 225.386 L 303.208 237.753 L 222.585 237.753 L 234.891 225.448 L 234.176 224.749 L 221.032 237.894 L 220.177 238.748 L 221.374 238.748 L 304.403 238.748 L 305.599 238.748 L 304.76 237.894 L 291.554 224.687 L 291.555 224.687 Z" style="fill: rgb(30, 30, 30);" transform="matrix(0.965926, -0.258819, 0.258819, 0.965926, -51.015198, 75.935977)"/>
  <path id="polyline43" d="M 295.766 144.238 L 294.912 145.092 L 281.752 158.237 L 282.467 158.951 L 294.772 146.631 L 294.772 227.283 L 282.436 214.931 L 281.737 215.631 L 294.912 228.821 L 295.766 229.676 L 295.766 228.464 L 295.766 145.435 L 295.766 144.239 L 295.766 144.238 Z" style="fill: rgb(30, 30, 30);" transform="matrix(0.965926, -0.258819, 0.258819, 0.965926, -38.549055, 81.10476)"/>
  <path id="polyline45" d="M 201.263 154.092 L 202.118 154.931 L 215.278 168.107 L 215.977 167.407 L 203.672 155.087 L 284.294 155.087 L 271.94 167.438 L 272.636 168.137 L 285.845 154.931 L 286.684 154.092 L 285.488 154.092 L 202.459 154.092 L 201.263 154.092 L 201.263 154.092 Z" style="fill: rgb(30, 30, 30);" transform="matrix(0.965926, -0.258819, 0.258819, 0.965926, -33.386299, 68.634804)"/>
  <path id="line47" d="M 199.089 155.312 L 199.089 269.136 L 200.083 269.136 L 200.083 155.312 L 199.089 155.312 Z" style="fill: rgb(30, 30, 30);" transform="matrix(0.965926, -0.258819, 0.258819, 0.965926, -48.126865, 58.887982)"/>
  <path id="rect49" d="M 346.256 149.539 L 346.256 150.037 L 346.256 156.95 L 346.256 157.447 L 346.753 157.447 L 389.277 157.447 L 389.775 157.447 L 389.775 156.95 L 389.775 150.037 L 389.775 149.539 L 389.277 149.539 L 346.753 149.539 L 346.256 149.539 Z M 347.251 150.534 L 388.781 150.534 L 388.781 156.453 L 347.251 156.452 L 347.251 150.534 Z" style="fill: rgb(30, 30, 30);" transform="matrix(0.965926, -0.258819, 0.258819, 0.965926, -27.187087, 100.479534)"/>
  <path id="rect51" d="M 391.245 137.487 L 391.245 137.984 L 391.245 144.897 L 391.245 145.395 L 391.742 145.395 L 434.251 145.395 L 434.748 145.395 L 434.748 144.897 L 434.748 137.984 L 434.748 137.487 L 434.251 137.487 L 391.742 137.487 L 391.245 137.487 Z M 392.239 138.481 L 433.754 138.481 L 433.754 144.4 L 392.239 144.4 L 392.239 138.481 Z" style="fill: rgb(30, 30, 30);" transform="matrix(0.965926, -0.258819, 0.258819, 0.965926, -22.53511, 111.710802)"/>
  <path id="path53" d="M 296.011 110.156 C 295.496 110.156 295.064 110.589 295.064 111.105 L 295.064 138.775 C 295.064 139.291 295.496 139.723 296.011 139.723 L 443.658 139.723 C 444.172 139.723 444.59 139.289 444.59 138.775 L 444.59 112.658 C 444.59 111.28 443.467 110.157 442.089 110.157 L 296.014 110.157 L 296.011 110.157 Z M 296.058 111.152 L 442.088 111.152 C 442.93 111.152 443.595 111.817 443.595 112.658 L 443.595 138.729 L 296.058 138.729 L 296.058 111.152 L 296.058 111.152 Z" style="fill: rgb(30, 30, 30);" transform="matrix(0.965926, -0.258819, 0.258819, 0.965926, -19.735166, 99.975389)"/>
  <path id="path55" d="M 319.088 204.876 C 318.573 204.876 318.141 205.309 318.141 205.823 L 318.141 216.311 C 318.141 216.826 318.574 217.258 319.088 217.258 L 465.164 217.258 C 466.542 217.258 467.666 216.119 467.666 214.742 L 467.666 205.823 C 467.666 205.309 467.248 204.876 466.734 204.876 L 319.086 204.876 L 319.088 204.876 Z M 319.135 205.87 L 466.673 205.87 L 466.673 214.742 C 466.673 215.582 466.007 216.264 465.166 216.264 L 319.135 216.264 L 319.135 205.87 L 319.135 205.87 Z" style="fill: rgb(30, 30, 30);" transform="matrix(0.965926, -0.258819, 0.258819, 0.965926, -41.240291, 108.882804)"/>
  <path id="line57" d="M 301.661 158.652 L 298.383 161.93 L 299.098 162.629 L 302.361 159.367 L 301.661 158.652 Z" style="fill: rgb(30, 30, 30);" transform="matrix(0.965926, -0.258819, 0.258819, 0.965926, -31.341878, 83.215612)"/>
  <path id="line59" d="M 315.929 221.474 L 315.214 222.173 L 318.493 225.451 L 319.192 224.737 L 315.929 221.474 Z" style="fill: rgb(30, 30, 30);" transform="matrix(0.965926, -0.25882, 0.25882, 0.965926, -47.028024, 89.712763)"/>
</svg>
